X:1
T:Sonata Op.58-3:4 part
T:Sonata Op.58-3:4 part
T:Chopin
C:Chopin
%%score { ( 1 3 ) | ( 2 4 ) }
L:1/8
M:6/8
K:D
V:1 bass nm="Piano" snm="Pno."
V:3 bass 
V:2 bass 
V:4 bass 
V:1
 B,,/=C,/^D,/A,/F,/C,/ B,,/C,/D,/A,/F,/C,/ | B,,/=C,/^D,/A,/F,/C,/ B,,/C,/D,/A,/F,/C,/ | %2
 B,,/ z/ z =C, B,,/ z/ z F, | B,,/ z/ z [=C,=C] B,[^D,A,]^D |[K:treble] E2 B, =C2 ^D | %5
 E2 B, =C2 ^D | E2 E{/F} E[A,=C^D]E | G3- G2 _E | G2 D _E2 F | G2 D _E2 F | G2 G{/A} G[=C=EF]G | %11
 B3- B3- | B2 F G2 ^G | A3- A>BA | G2 F E2 F | B,3- B,>AG | F2 G E2 F | B,2 B,- B,>AG | %18
 F2 G E2 =c | B6 | ^A3 =A3 | ^G3 =G3 | E2 =F A2 ^D | E z [B,B] [=C=c][FA][^D^d] | %24
 [Ee]G[B,B] [=C=c][FA][^D^d] | [Ee][GB][Ee] [A=c][^D^d]e | g6- | g2 d _e z f | %28
 [Gg][Bd][Dd] [_E_e][A=c][Ff] | [Gg][Bd][Gg] [=c=e][Ff][Gg] | b6- | b2 f g z ^g | a3- a z/ b/a | %33
 [Gg][Bd][Ff] [Ee][G^c][Ff] | B3- B z/ a/g | [Ff][AB][Gg] [Ee][GB][Gg] | %36
 [B,B][=F^G][=C=c] [A,A][CE][Ee] | [=G,=G][B,E][A,A] [^F,^F][=CE][C=c] | %38
 [=C=c][^DF][D^d] [Ff][Gg][Aa] | [=c=c'][^dg]c [Bb][eg]B | [^A^a][ef]A [=A=a][^df]A | %41
 [Gg][Be]G [G,G]EG, | [Gg][=c^d]G [Ff][Bd]F | B,[FB]B, [EB]B,[EB] | ^A,[EF^A]=A, [^D=A]A,[DA] | %45
 ^G,[B,E^G]=G, [=CE=G]G,[CEG] |[K:bass] =F,[=C=F]E, [A,B,E]^D,[A,^D] |[K:Eb] [G,B,EG]2 z G3 | %48
[K:treble] AGc B z [F,=A,E] | [F,B,EF]2 z!8va(! c''/b'/a'/g'/f'/e'/!8va)! | %50
 d'/c'/b/a/g/f/ e/d/c/B/=A/_A/ | G3 =A3 |] %52
V:2
 B,,,/ z/ z z/ =C,,/ B,,,/ z/ z z/ C,,/ | B,,,/ z/ z z/ =C,,/ B,,,/ z/ z z/ C,,/ | %2
 B,,,/=C,,/F,,/A,,/F,,/C,,/ B,,,/C,,/F,,/A,,/F,,/C,,/ | %3
 B,,,/=C,,/F,,/A,,/F,,/C,,/ (4:3:4B,,,F,,B,,F,, | (4:3:4E,,B,,E,B,, (4:3:4A,,=C,E,C, | %5
 (4:3:4E,,B,,E,B,, (4:3:4A,,=C,E,C, | (4:3:4E,,B,,E,B,, (4:3:4A,,=C,E,C, | %7
 (4:3:4G,,D,G,D, (4:3:4=C,_E,G,E, | (4:3:4G,,D,G,D, (4:3:4=C,_E,G,E, | %9
 (4:3:4G,,D,G,D, (4:3:4=C,_E,G,E, | (4:3:4G,,D,G,D, (4:3:4=C,=E,G,E, | %11
 (4:3:4B,,F,B,F, (4:3:4E,G,B,G, | (4:3:4B,,F,B,F, (4:3:4E,,E,G,E, | %13
 (4:3:4A,,E,A,E, (4:3:4D,,D,A,D, | (4:3:4G,,D,G,D, (4:3:4^C,,^C,F,=C,, | %15
 (4:3:4B,,,F,,B,,F,, (4:3:4E,,B,,E,B,, | (4:3:4^D,,B,,F,B,, (4:3:4E,,B,,E,B,, | %17
 (4:3:4E,,B,,^D,B,, (4:3:4E,,B,,E,B,, | (4:3:4E,,B,,^D,B,, (4:3:4E,,B,,E,B,, | %19
 (4:3:4^D,,B,,F,B,, (4:3:4=D,,^G,,=F,G,, | (4:3:4C,,E,,E,E,, (4:3:4=C,,E,,E,E,, | %21
 (4:3:4B,,,E,,C,E,, (4:3:4_B,,,E,,=C,E,, | (4:3:4A,,,=F,,=C,F,, (4:3:4=B,,,^F,,B,,F,, | %23
 E,,,G,B,, (4:3:4E,,=C,A,C, | (4:3:4E,,B,,E,B,, (4:3:4E,,=C,A,C, | %25
 (4:3:4E,,B,,E,B,, (4:3:4A,,=C,=CC, | (4:3:4G,,D,B,D, (4:3:4=C,_E,=CE, | %27
 (4:3:4G,,D,B,D, (4:3:4G,,_E,=CE, | (4:3:4G,,D,B,D, (4:3:4G,,_E,=CE, | %29
 (4:3:4G,,D,B,D, (4:3:4=C,=E,=EE, | (4:3:4B,,F,^DF, (4:3:4E,G,GG, | (4:3:4^D,B,FB, (4:3:4=D,E,EE, | %32
 (4:3:4C,E,EE, (4:3:4=C,F,DF, | (4:3:4B,,G,DG, (4:3:4B,,G,^C^A,, | %34
 (4:3:4=A,,F,B,F, (4:3:4G,,E,B,E, | (4:3:4^D,,B,,F,B,, (4:3:4E,,B,,G,B,, | %36
 (4:3:4=D,,^G,,=F,G,, (4:3:4=C,,A,,E,A,, | (4:3:4B,,,E,,E,E,, (4:3:4A,,,E,,E,E,, | %38
 (4:3:4A,,,A,,=C,F, (4:3:4A,,^D,=CD, | (4:3:4G,,^D,=CD, (4:3:4G,,E,B,E, | %40
 (4:3:4F,,F,^CF, (4:3:4B,,F,^DF, | (4:3:4E,G,EG, (4:3:4^A,,E,=CE, | %42
 (4:3:4=A,,^D,=CD, (4:3:4A,,D,B,D, | (4:3:4G,,^D,F,D, (4:3:4G,,E,G,E, | %44
 (4:3:4F,,^C,F,C, (4:3:4B,,,B,,F,B,, | (4:3:4E,,B,,E,B,, (4:3:4=C,,=C,E,C, | %46
 (4:3:4A,,,A,,=C,A,, (4:3:4B,,,F,,B,,F,, |[K:Eb] [B,,,B,,]2 z B,3 | CB,A, G, z [_C,,_C,] | %49
 [B,,,B,,]2 z [F,_A,B,D]3 | [F,A,B,E]3 [A,B,G]2 F | [E,B,]3 C3 |] %52
V:3
 x6 | x6 | x6 | x6 |[K:treble] EG,B, =CA,^D | EG,B, =CA,^D | E[G,B,]E EA,E | GB,=D z =C_E | %8
 GB,D _E[A,=C]F | GB,D _E[A,=C]F | G[B,D]G G=CG | B^DF z EG | z ^DF G[=DE]^G | AC=G [=CF]3 | %14
 GB,F E^A,F | B,^D,A, G,>AG | F[A,B,]G E[G,B,]F | B,[F,A,]B, G,>AG | F[A,B,]G E[G,B,][=C=c] | %19
 FB,F B,=FB, | E^A,E =A,EA, | E^G,E =G,=CG, | =C=F,C A,B,^D, | E, z B, =CF^D | x6 | x6 | %26
 G[B=d]G [=c_e]G[ce] | G[Bd][Dd] [_E_e][A=c][Ff] | x6 | x6 | B[^df]B [eg]B[eg] | %31
 B^d[Ff] [Gg][Be][^G^g] | A[ce]A [=df] z/ [Bb]/[Aa] | x6 | B,[^DF]B, [EG] z/ [Aa]/[Gg] | x6 | x6 | %37
 x6 | x6 | x6 | x6 | x6 | x6 | x6 | x6 | x6 |[K:bass] x6 |[K:Eb] [G,B,EG]2 z E3 | %48
[K:treble] E2 D E z [F,=A,E] | x3!8va(! x3!8va)! | x6 | G3 ^F3 |] %52
V:4
 x6 | x6 | x6 | x6 | x6 | x6 | x6 | x6 | x6 | x6 | x6 | x6 | x6 | x6 | x6 | x6 | x6 | x6 | x6 | %19
 x6 | x6 | x6 | x6 | x6 | x6 | x6 | x6 | x6 | x6 | x6 | x6 | x6 | x6 | x6 | x6 | x6 | x6 | x6 | %38
 x6 | x6 | x6 | x6 | x6 | x6 | x6 | x6 | x6 |[K:Eb] [B,,,B,,]2 z B,,3- | B,,3- B,, z [_C,,_C,] | %49
 x6 | x6 | [E,B,]3 D,3 |] %52

